src/objects/money/1F4B6.svg

<?xml version="1.0" encoding="UTF-8"?>
<svg id="emoji" xmlns="http://www.w3.org/2000/svg" viewBox="0 0 72 72">
  <g id="grid">
    <path d="m68,4v64H4V4h64M72,0H0v72h72V0Z" fill="#b3b3b3"/>
    <path d="m12.923,10.9583h46.1539c1.0621,0,1.9231.861,1.9231,1.9231h0v46.1538c0,1.0621-.861,1.9231-1.9231,1.9231H12.9231c-1.0621,0-1.9231-.861-1.9231-1.9231h0V12.8813c0-1.062.861-1.923,1.923-1.923h0Z" fill="none" stroke="#00a5ff" stroke-miterlimit="10" stroke-width=".1"/>
    <rect x="16" y="4" width="40" height="64" rx="2.2537" ry="2.2537" fill="none" stroke="#00a5ff" stroke-miterlimit="10" stroke-width=".1"/>
    <rect x="4" y="16" width="64" height="40" rx="2.2537" ry="2.2537" fill="none" stroke="#00a5ff" stroke-miterlimit="10" stroke-width=".1"/>
    <circle cx="36" cy="36" r="29" fill="none" stroke="#00a5ff" stroke-miterlimit="10" stroke-width=".1"/>
  </g>
  <g id="color">
    <rect x="10.0579" y="19.9459" width="51.5526" height="32.8773" fill="#fff"/>
    <rect x="34.375" y="19.8844" width="22.5625" height="32.625" fill="#b1cc33"/>
    <path d="m36.5686,21.8042v29.2855c0,.1053-.02.2011-.05.2969-.13.383-.51.6608-.95.6608h-15.34c-.44,0-.82-.2778-.95-.6608-.03-.0958-.05-.1915-.05-.2969v-29.2855c0-.1053.02-.2011.05-.2969.13-.3831.51-.6608.95-.6608h15.34c.44,0,.82.2777.95.6608.03.0958.05.1916.05.2969Z" fill="#d0cfce"/>
  </g>
  <g id="line">
    <path d="m41.7094,20.8465h17.8015c.5523,0,1,.4477,1,1v29.2008c0,.5523-.4477,1-1,1h-17.8015" fill="none" stroke="#000" stroke-linecap="round" stroke-linejoin="round" stroke-width="2"/>
    <path d="m36.5686,21.8042v29.2855c0,.1053-.02.2011-.05.2969-.13.383-.51.6608-.95.6608h-15.34c-.44,0-.82-.2778-.95-.6608-.03-.0958-.05-.1915-.05-.2969v-29.2855c0-.1053.02-.2011.05-.2969.13-.3831.51-.6608.95-.6608h15.34c.44,0,.82.2777.95.6608.03.0958.05.1916.05.2969Z" fill="none" stroke="#000" stroke-linecap="round" stroke-linejoin="round" stroke-width="2"/>
    <path d="m13.75,52.0473h-1.609c-.5523,0-1-.4477-1-1v-29.2008c0-.5523.4477-1,1-1h1.609" fill="none" stroke="#000" stroke-linecap="round" stroke-linejoin="round" stroke-width="2"/>
    <path d="m30.5176,39.7733c-.5113.4535-1.1843.7289-1.9215.7289h0c-1.3834,0-2.8967-1.3396-2.8967-2.8967v-2.3173,2.3173-2.3173c0-1.5998,1.2969-2.8967,2.8967-2.8967h0c.7373,0,1.4102.2754,1.9215.729" fill="none" stroke="#000" stroke-linecap="round" stroke-linejoin="round" stroke-width="2"/>
    <line x1="23.9729" y1="36.4318" x2="28.3403" y2="36.4318" fill="none" stroke="#000" stroke-linecap="round" stroke-linejoin="round" stroke-width="2"/>
    <path d="m54.0986,32h0c-1.0579,0-1.9155-.8576-1.9155-1.9155v-3.1689c0-1.0579.8576-1.9156,1.9155-1.9156h0c1.058,0,1.9156.8577,1.9156,1.9156v3.1689c0,1.0579-.8576,1.9155-1.9156,1.9155Z" fill="none" stroke="#000" stroke-linecap="round" stroke-linejoin="round" stroke-width="2"/>
    <path d="m47.4307,32h0c-1.0579,0-1.9155-.8576-1.9155-1.9155v-3.1689c0-1.0579.8576-1.9156,1.9155-1.9156h0c1.058,0,1.9156.8577,1.9156,1.9156v3.1689c0,1.0579-.8576,1.9155-1.9156,1.9155Z" fill="none" stroke="#000" stroke-linecap="round" stroke-linejoin="round" stroke-width="2"/>
    <polyline points="40.7405 26.4518 42.6784 25 42.6784 32" fill="none" stroke="#000" stroke-linecap="round" stroke-linejoin="round" stroke-width="2"/>
  </g>
</svg>

<svg id="emoji" viewBox="0 0 72 72" xmlns="http://www.w3.org/2000/svg">
  <g id="grid">
    <path fill="#b3b3b3" d="M68,4V68H4V4H68m4-4H0V72H72V0Z"/>
    <path fill="none" stroke="#00a5ff" stroke-miterlimit="10" stroke-width="0.1" d="M12.923,10.9583H59.0769A1.9231,1.9231,0,0,1,61,12.8814V59.0352a1.9231,1.9231,0,0,1-1.9231,1.9231H12.9231A1.9231,1.9231,0,0,1,11,59.0352V12.8813A1.923,1.923,0,0,1,12.923,10.9583Z"/>
    <rect x="16" y="4" rx="2.2537" width="40" height="64" fill="none" stroke="#00a5ff" stroke-miterlimit="10" stroke-width="0.1"/>
    <rect x="16" y="4" rx="2.2537" width="40" height="64" transform="translate(72) rotate(90)" fill="none" stroke="#00a5ff" stroke-miterlimit="10" stroke-width="0.1"/>
    <circle cx="36" cy="36" r="29" fill="none" stroke="#00a5ff" stroke-miterlimit="10" stroke-width="0.1"/>
  </g>
  <g id="color">
    <rect x="11.5579" y="19.9459" width="48.5526" height="32.8773" fill="#FFFFFF" stroke="none"/>
    <rect x="34.375" y="19.8844" width="22.5625" height="33.125" fill="#B1CC33" stroke="none"/>
    <path fill="#D0CFCE" stroke="none" stroke-linecap="round" stroke-linejoin="round" stroke-miterlimit="10" stroke-width="2" d="M36.5686,21.8042v29.2855c0,0.1053-0.02,0.2011-0.05,0.2969c-0.13,0.383-0.51,0.6608-0.95,0.6608h-15.34 c-0.44,0-0.82-0.2778-0.95-0.6608c-0.03-0.0958-0.05-0.1915-0.05-0.2969V21.8042c0-0.1053,0.02-0.2011,0.05-0.2969 c0.13-0.3831,0.51-0.6608,0.95-0.6608h15.34c0.44,0,0.82,0.2777,0.95,0.6608C36.5486,21.6031,36.5686,21.6989,36.5686,21.8042z"/>
  </g>
  <g id="hair"/>
  <g id="skin"/>
  <g id="skin-shadow"/>
  <g id="line">
    <path fill="none" stroke="#000000" stroke-linecap="round" stroke-linejoin="round" stroke-miterlimit="10" stroke-width="2" d="M41.7094,20.8465h17.8015c0.5523,0,1,0.4477,1,1v29.2008c0,0.5523-0.4477,1-1,1H41.7094"/>
    <path fill="none" stroke="#000000" stroke-linecap="round" stroke-linejoin="round" stroke-miterlimit="10" stroke-width="2" d="M36.5686,21.8042v29.2855c0,0.1053-0.02,0.2011-0.05,0.2969c-0.13,0.383-0.51,0.6608-0.95,0.6608h-15.34 c-0.44,0-0.82-0.2778-0.95-0.6608c-0.03-0.0958-0.05-0.1915-0.05-0.2969V21.8042c0-0.1053,0.02-0.2011,0.05-0.2969 c0.13-0.3831,0.51-0.6608,0.95-0.6608h15.34c0.44,0,0.82,0.2777,0.95,0.6608C36.5486,21.6031,36.5686,21.6989,36.5686,21.8042z"/>
    <path fill="none" stroke="#000000" stroke-linecap="round" stroke-linejoin="round" stroke-miterlimit="10" stroke-width="2" d="M13.75,52.0473h-1.609c-0.5523,0-1-0.4477-1-1V21.8465c0-0.5523,0.4477-1,1-1H13.75"/>
    <path fill="none" stroke="#000000" stroke-linecap="round" stroke-linejoin="round" stroke-miterlimit="10" stroke-width="2" d="M30.5176,39.7733c-0.5113,0.4535-1.1843,0.7289-1.9215,0.7289l0,0c-1.3834,0-2.8967-1.3396-2.8967-2.8967 c0-0.5793,0-2.3173,0-2.3173v2.3173v-2.3173c0-1.5998,1.2969-2.8967,2.8967-2.8967l0,0c0.7373,0,1.4102,0.2754,1.9215,0.729"/>
    <line x1="23.9729" x2="28.3403" y1="36.4318" y2="36.4318" fill="none" stroke="#000000" stroke-linecap="round" stroke-linejoin="round" stroke-miterlimit="10" stroke-width="2"/>
    <path fill="none" stroke="#000000" stroke-linecap="round" stroke-linejoin="round" stroke-miterlimit="10" stroke-width="2" d="M54.0986,32L54.0986,32c-1.0579,0-1.9155-0.8576-1.9155-1.9155v-3.1689c0-1.0579,0.8576-1.9156,1.9155-1.9156l0,0 c1.058,0,1.9156,0.8577,1.9156,1.9156v3.1689C56.0142,31.1424,55.1566,32,54.0986,32z"/>
    <path fill="none" stroke="#000000" stroke-linecap="round" stroke-linejoin="round" stroke-miterlimit="10" stroke-width="2" d="M47.4307,32L47.4307,32c-1.0579,0-1.9155-0.8576-1.9155-1.9155v-3.1689c0-1.0579,0.8576-1.9156,1.9155-1.9156l0,0 c1.058,0,1.9156,0.8577,1.9156,1.9156v3.1689C49.3463,31.1424,48.4887,32,47.4307,32z"/>
    <polyline fill="none" stroke="#000000" stroke-linecap="round" stroke-linejoin="round" stroke-miterlimit="10" stroke-width="2" points="40.7405,26.4518 42.6784,25 42.6784,32"/>
  </g>
</svg>
